app/img/clients/13.svg

<svg width="153" height="113" viewBox="0 0 153 113" fill="none" xmlns="http://www.w3.org/2000/svg">
	<path opacity="0.6" fill-rule="evenodd" clip-rule="evenodd" d="M29.3122 29.4117C13.1907 45.5861 0 59.015 0 59.2526C0 59.7709 3.49594 63.2474 4.01722 63.2474C4.21827 63.2478 6.85618 60.7228 9.87966 57.6362L15.3769 52.0246V82.5123V113H18.4523H21.5276V79.4886V45.9776L40.2286 27.1917L58.9292 8.4062L72.8203 22.3384L86.711 36.2705L93.0421 36.1641L99.3731 36.0576L99.4765 27.4763L99.5799 18.895H103.225H106.869V27.3799V35.8648H118.979H131.088V32.7794V29.694H122.054H113.02V21.2091V12.7242H103.217H93.4146V21.4019V30.0797H91.2764H89.1383L74.2031 15.0383C65.9891 6.76553 59.1234 -0.00192797 58.9461 4.12015e-07C58.7693 0.00154312 45.4341 13.2368 29.3122 29.4117ZM102.744 42.7838C101.849 42.93 101.054 43.1252 100.976 43.2177C100.566 43.7037 101.677 46.0393 102.871 47.2029C105.17 49.4429 109.016 49.5328 111.588 47.4065C112.878 46.3398 114.143 43.8051 113.639 43.2991C113.514 43.1737 112.633 42.9531 111.682 42.8081C110.145 42.574 109.887 42.6442 109.367 43.441C108.271 45.1187 105.701 44.9679 105.139 43.193C105.005 42.7684 104.777 42.4429 104.633 42.4695C104.489 42.4961 103.639 42.6376 102.744 42.7838ZM73.6168 50.5247C70.2774 51.5614 66.8764 54.5161 65.2887 57.76C64.5464 59.2773 64.3961 60.1994 64.3938 63.2478C64.3911 66.4412 64.523 67.184 65.4213 69.0329C67.1982 72.6888 69.7038 74.8428 73.543 76.0141C76.6399 76.959 79.2505 76.937 82.299 75.9396C86.2855 74.6353 88.6354 72.5522 90.4384 68.7248C91.5071 66.4558 91.5716 66.0613 91.4156 62.7468C91.2168 58.5136 90.2239 56.2069 87.5279 53.7135C84.7566 51.1507 82.6869 50.3655 78.4221 50.2586C76.4135 50.2081 74.2511 50.328 73.6168 50.5247ZM33.4447 63.2478V75.9751H36.8957H40.347L40.4516 69.004L40.5565 62.0329L43.5977 66.69C45.2707 69.2512 46.7411 71.3416 46.8653 71.3346C46.9898 71.3281 48.3026 69.4217 49.7827 67.098C51.2627 64.7747 52.6843 62.5675 52.9418 62.193C53.3178 61.6469 53.4128 62.9412 53.4224 68.7437L53.4347 75.9751H56.8945H60.3543V63.2478V50.5205L56.6062 50.527L52.858 50.5332L50.7445 54.0945C47.7698 59.1056 47.1186 60.1288 46.8995 60.1366C46.7938 60.14 45.4099 57.9822 43.8241 55.3414L40.941 50.5398L37.1928 50.5301L33.4447 50.5205V63.2478ZM95.3367 63.2478V75.9751H98.743H102.149L103.661 73.7575C104.492 72.5376 106.459 69.6307 108.031 67.2974C109.604 64.9641 111.11 62.8255 111.379 62.5455C111.774 62.1324 111.867 63.36 111.867 69.0056V75.9751H115.327H118.786V63.2478V50.5205H115.327C113.424 50.5205 111.867 50.6674 111.867 50.8472C111.867 51.0269 111.564 51.5333 111.194 51.9729C110.824 52.4122 109.051 54.9793 107.254 57.6775C105.457 60.3757 103.603 63.0364 103.134 63.5903L102.281 64.5977L102.269 57.5591L102.256 50.5205H98.7965H95.3367V63.2478ZM80.9209 57.3038C82.5866 58.4268 83.0498 58.9467 83.6326 60.3452C85.6539 65.1986 82.6973 70.19 77.8013 70.19C76.3997 70.19 74.5348 69.3939 73.4135 68.3171C70.6602 65.6725 70.9443 60.1886 73.9574 57.8132C75.8103 56.3523 79.1479 56.1082 80.9209 57.3038ZM106.024 81.8316C101.73 82.3835 97.6513 85.4246 95.7726 89.4738C94.9653 91.2132 94.7858 92.1847 94.7743 94.8732C94.762 97.6752 94.9146 98.4774 95.8241 100.395C98.7023 106.461 105.291 109.511 111.873 107.824C116.989 106.513 120.393 103.1 121.698 97.9714C122.738 93.8882 122 90.3751 119.364 86.857C116.405 82.9084 111.632 81.1104 106.024 81.8316ZM70.0513 88.606C69.6423 94.5531 69.1306 97.6092 68.0808 100.369C67.7636 101.203 67.4288 101.43 66.5146 101.43H65.3518V107.215V113H68.5959H71.8397L72.0503 111.361C72.1664 110.46 72.3067 109.288 72.3625 108.758L72.4636 107.793L79.0948 107.688L85.7261 107.582V110.291V113H88.7181H91.7101L92.1783 109.047C92.4355 106.872 92.6457 104.269 92.6457 103.262V101.43H91.3003H89.9548V91.7878V82.1459H80.2251H70.4953L70.0513 88.606ZM125.706 94.8732V107.601H129.157H132.609L132.713 100.383L132.818 93.1647L135.008 96.6223C136.212 98.5241 137.669 100.756 138.245 101.583C139.486 103.364 139.087 103.707 143.197 97.3192L145.888 93.1377L145.993 100.369L146.097 107.601H149.549H153V94.8732V82.1459H149.183H145.366L143.541 85.1349C140.973 89.3426 139.428 91.7878 139.34 91.7878C139.299 91.7878 138.353 90.2694 137.238 88.4132C136.123 86.5573 134.779 84.3879 134.25 83.5922L133.29 82.1459H129.498H125.706V94.8732ZM111.663 89.0808C113.89 90.4619 114.747 92.0748 114.739 94.8732C114.731 97.9741 113.635 99.882 111.198 101.041C109.24 101.972 108.083 102.012 106.184 101.216C102.844 99.8169 101.361 96.6902 102.257 92.9414C102.61 91.4662 103.084 90.6956 104.263 89.684C105.111 88.9551 106.175 88.279 106.626 88.181C108.01 87.8817 110.424 88.3129 111.663 89.0808ZM82.6508 94.8732V101.43H78.973C75.6531 101.43 75.3137 101.364 75.487 100.755C76.3981 97.5525 76.9394 94.6006 77.1431 91.7219L77.3838 88.3167H80.0175H82.6508V94.8732Z" fill="white" />
</svg>

<svg width="153" height="113" fill="none" xmlns="http://www.w3.org/2000/svg"><path opacity=".6" fill-rule="evenodd" clip-rule="evenodd" d="M29.312 29.412C13.191 45.586 0 59.015 0 59.252c0 .519 3.496 3.995 4.017 3.995.201 0 2.84-2.524 5.863-5.61l5.497-5.612V113h6.151V45.978l18.7-18.786L58.93 8.406l13.89 13.932L86.711 36.27l6.331-.106 6.331-.106.103-8.582.104-8.581h7.289v16.97h24.219v-6.171H113.02v-16.97H93.415V30.08h-4.277L74.203 15.038C65.99 6.766 59.123-.002 58.946 0c-.177.002-13.512 13.237-29.634 29.412zm73.432 13.372c-.895.146-1.69.341-1.768.434-.41.486.701 2.821 1.895 3.985 2.299 2.24 6.145 2.33 8.717.203 1.29-1.066 2.555-3.6 2.051-4.107-.125-.125-1.006-.346-1.957-.49-1.537-.235-1.795-.165-2.315.632-1.096 1.678-3.666 1.527-4.228-.248-.134-.425-.362-.75-.506-.724-.144.027-.994.169-1.889.315zm-29.127 7.74c-3.34 1.037-6.74 3.992-8.328 7.236-.743 1.517-.893 2.44-.895 5.488-.003 3.193.129 3.936 1.027 5.785 1.777 3.656 4.283 5.81 8.122 6.981 3.097.945 5.707.923 8.756-.074 3.986-1.305 6.336-3.388 8.14-7.215 1.068-2.27 1.133-2.664.977-5.978-.2-4.233-1.192-6.54-3.888-9.033-2.771-2.563-4.841-3.349-9.106-3.455-2.008-.05-4.17.069-4.805.266zM33.445 63.249v12.727h6.902l.105-6.971.105-6.971 3.04 4.657c1.674 2.561 3.144 4.652 3.268 4.645.125-.007 1.438-1.913 2.918-4.237 1.48-2.323 2.901-4.53 3.159-4.905.376-.546.47.748.48 6.55l.013 7.232h6.92V50.521l-3.749.006-3.748.006-2.113 3.561c-2.975 5.012-3.626 6.035-3.845 6.043-.106.003-1.49-2.155-3.076-4.796l-2.883-4.801-3.748-.01-3.748-.01v12.728zm61.892 0v12.727h6.812l1.512-2.218c.831-1.22 2.798-4.126 4.37-6.46 1.573-2.333 3.079-4.471 3.348-4.752.395-.413.488.815.488 6.46v6.97h6.919V50.521h-3.459c-1.903 0-3.46.146-3.46.326 0 .18-.303.686-.673 1.126-.37.44-2.143 3.006-3.94 5.705-1.797 2.698-3.651 5.358-4.12 5.912l-.853 1.008-.012-7.039-.013-7.038h-6.92v12.727zM80.92 57.304c1.666 1.123 2.129 1.643 2.712 3.041 2.02 4.854-.936 9.845-5.832 9.845-1.401 0-3.266-.796-4.388-1.873-2.753-2.644-2.469-8.128.544-10.504 1.853-1.46 5.19-1.705 6.964-.51zm25.103 24.528c-4.294.552-8.373 3.593-10.251 7.642-.808 1.74-.987 2.71-.999 5.4-.012 2.801.14 3.603 1.05 5.521 2.878 6.066 9.467 9.116 16.049 7.429 5.116-1.311 8.52-4.724 9.825-9.853 1.04-4.083.302-7.596-2.334-11.114-2.959-3.949-7.732-5.747-13.34-5.025zM70.05 88.606c-.409 5.947-.92 9.003-1.97 11.763-.317.834-.652 1.061-1.566 1.061h-1.163V113h6.488l.21-1.639c.116-.901.257-2.073.313-2.603l.1-.965 6.632-.105 6.631-.106V113h5.984l.468-3.953c.258-2.175.468-4.778.468-5.785v-1.832h-2.691V82.146h-19.46l-.444 6.46zm55.655 6.267v12.728h6.904l.104-7.218.105-7.218 2.19 3.457c1.204 1.902 2.661 4.134 3.237 4.961 1.241 1.781.842 2.124 4.952-4.264l2.691-4.181.105 7.231.104 7.232H153V82.146h-7.634l-1.825 2.989c-2.568 4.208-4.113 6.653-4.201 6.653-.041 0-.987-1.519-2.102-3.375-1.115-1.856-2.459-4.025-2.988-4.82l-.96-1.447h-7.584v12.727zm-14.043-5.792c2.227 1.38 3.084 2.994 3.076 5.792-.008 3.101-1.104 5.009-3.541 6.168-1.958.931-3.115.971-5.014.175-3.34-1.4-4.823-4.526-3.927-8.275.353-1.475.827-2.245 2.006-3.257.848-.729 1.912-1.405 2.363-1.503 1.384-.3 3.798.132 5.037.9zM82.65 94.873v6.557h-3.678c-3.32 0-3.66-.066-3.486-.675.911-3.203 1.452-6.154 1.656-9.033l.24-3.405h5.268v6.556z" fill="#fff"/></svg>
